X: 1
T:ESQUIRE LESSAR
B:John of the Greeny Cheshire Way
N: John Offord, Reproduced with permission
M:9/4
L:1/8
K:F
P:1
d2 ABcA B2 G2 B2 A2 F2 A2| c4 c2 c3 d c2 B4 A2 |\
d2 ABcA B2 GABG A2 FGAF | d4 d2 d3 d d2 d4 A2 ||
P:2
d2 A2 G2 F4 G2 A6 | c4 c2 c3 d c2 B4 A2 |\
d2 A2 G2 F4 G2 A6 | d4 d2 d3 _e d2 c4 A2 ||
P:3
F3 GAF =E3 FGE D3 EFD | dBcd c2 c2 C2 c2 B4 A2 |\
F3 GAF E3 FGE D3 EFD | d4 d2 d3 d d2 B4 A2 ||
P:4
F2 D2 F2 E2 C2 E2 D6 | c4 c2 c3 d c2 B4 A2 |\
F2 A2 c2 E2 C2 E2 D6 | d6 d3 _e d2 B4 A2 |]
